configs/network-logos/polygon-zkevm-light.svg

<svg width="118" height="24" viewBox="0 0 118 24" fill="none" xmlns="http://www.w3.org/2000/svg">
<g clip-path="url(#clip0_10548_21291)">
<g clip-path="url(#clip1_10548_21291)">
<path d="M34.3161 22.4527V7.32744H36.582L36.7804 8.55381H36.8995C37.5343 7.72305 38.6452 7.12964 40.1574 7.12964C42.9392 7.12964 45.2008 9.38898 45.2008 12.7516C45.2008 16.1143 42.9744 18.3736 40.153 18.3736C38.6452 18.3736 37.6092 17.7406 37.0538 17.0285H36.9347V22.4132H34.3116V22.4527H34.3161ZM42.5777 12.7516C42.5777 10.7736 41.308 9.54283 39.7562 9.54283C38.2044 9.54283 36.9347 10.7692 36.9347 12.7516C36.9347 14.734 38.2044 15.9604 39.7562 15.9604C41.308 15.9604 42.5777 14.734 42.5777 12.7516Z" fill="#22143D"/>
<path d="M46.5101 12.7516C46.5101 9.4637 48.8952 7.12964 52.0296 7.12964C55.2082 7.12964 57.5491 9.50766 57.5491 12.7516C57.5491 16.0395 55.1641 18.3736 52.0296 18.3736C48.8511 18.3736 46.5101 16 46.5101 12.7516ZM54.926 12.7516C54.926 10.8132 53.6564 9.54283 52.0252 9.54283C50.4381 9.54283 49.1244 10.8088 49.1244 12.7516C49.1244 14.6945 50.4337 15.9604 52.0252 15.9604C53.6167 15.9604 54.926 14.6945 54.926 12.7516Z" fill="#22143D"/>
<path d="M59.4536 18.1758V3.16919H62.0767V18.1758H59.4536Z" fill="#22143D"/>
<path d="M71.846 7.32739H74.6278L69.9018 20.5142C69.4257 21.8197 68.7909 22.4527 67.0804 22.4527H64.541V20.0351H66.6836C67.0804 20.0351 67.2788 19.8373 67.3978 19.5208L67.6358 18.8087L63.1876 7.323H65.9694L68.7909 14.8483H69.2273L71.7711 7.323H71.846V7.32739Z" fill="#22143D"/>
<path d="M75.1436 18.734H77.8063C77.9254 19.4461 78.6395 20.3956 80.3104 20.3956C81.8975 20.3956 82.9335 19.4066 82.9335 17.8989V16.3956H82.8144C82.2193 17.0285 81.148 17.5824 79.7946 17.5824C77.0128 17.5824 74.8306 15.4461 74.8306 12.356C74.8306 9.2659 76.9731 7.12964 79.7946 7.12964C81.223 7.12964 82.2986 7.72305 82.9731 8.51425H83.0922L83.2906 7.32744H85.5566V17.8989C85.5566 20.7912 83.6124 22.6901 80.3148 22.6901C76.6116 22.6901 75.2229 20.2769 75.1436 18.734ZM82.8894 12.356C82.8894 10.6549 81.6991 9.4637 80.1473 9.4637C78.6395 9.4637 77.4448 10.6505 77.4448 12.356C77.4448 14.0615 78.6351 15.2483 80.1473 15.2483C81.6594 15.2483 82.8894 14.0571 82.8894 12.356Z" fill="#22143D"/>
<path d="M87.3376 12.7516C87.3376 9.4637 89.7227 7.12964 92.8571 7.12964C96.0357 7.12964 98.3766 9.50766 98.3766 12.7516C98.3766 16.0395 95.9916 18.3736 92.8571 18.3736C89.6786 18.3736 87.3376 16 87.3376 12.7516ZM95.758 12.7516C95.758 10.8132 94.4486 9.54283 92.8571 9.54283C91.2701 9.54283 89.9563 10.8088 89.9563 12.7516C89.9563 14.6945 91.2657 15.9604 92.8571 15.9604C94.4442 15.9604 95.758 14.6945 95.758 12.7516Z" fill="#22143D"/>
<path d="M100.206 18.1758V7.32744H102.472L102.671 8.35601H102.79C103.226 7.88129 104.297 7.12964 105.928 7.12964C108.433 7.12964 110.218 8.90986 110.218 11.6835V18.2154H107.595V12.0395C107.595 10.6549 106.603 9.62195 105.25 9.62195C103.896 9.62195 102.825 10.6901 102.825 12.0395V18.2154H100.206V18.1758Z" fill="#22143D"/>
<path d="M20.1779 16.9099L26.61 13.1868C26.9671 12.989 27.1654 12.633 27.1654 12.2374V4.79122C27.1654 4.39561 26.9671 4.03957 26.61 3.84177L20.1779 0.118689C19.8208 -0.0791136 19.424 -0.0791136 19.067 0.118689L12.6305 3.84177C12.2734 4.03957 12.075 4.39561 12.075 4.79122V18.0571L7.54743 20.6725L3.01985 18.0571V12.8703L7.54743 10.255L10.5276 11.9561V8.47034L8.1029 7.08572C7.9442 7.0066 7.74581 6.92748 7.54743 6.92748C7.34904 6.92748 7.15066 6.96704 6.99195 7.08572L0.555476 10.8132C0.198384 11.011 0 11.367 0 11.7626V19.2088C0 19.6044 0.198384 19.9604 0.555476 20.1582L6.98754 23.8813C7.34463 24.0791 7.7414 24.0791 8.09849 23.8813L14.5306 20.1582C14.8877 19.9604 15.086 19.6044 15.086 19.2088V5.94286L15.1654 5.9033L19.618 3.32748L24.1456 5.94286V11.1297L19.618 13.7407L16.6378 12.0396V15.5253L19.0625 16.9099C19.4196 17.1077 19.8164 17.1077 20.1779 16.9099Z" fill="url(#paint0_linear_10548_21291)"/>
</g>
</g>
<defs>
<linearGradient id="paint0_linear_10548_21291" x1="-0.0445117" y1="19.94" x2="25.8119" y2="4.78619" gradientUnits="userSpaceOnUse">
<stop stop-color="#A726C1"/>
<stop offset="0.8784" stop-color="#803BDF"/>
<stop offset="1" stop-color="#7B3FE4"/>
</linearGradient>
<clipPath id="clip0_10548_21291">
<rect width="118" height="24" fill="white"/>
</clipPath>
<clipPath id="clip1_10548_21291">
<rect width="110.214" height="24" fill="white"/>
</clipPath>
</defs>
</svg>

<svg xmlns="http://www.w3.org/2000/svg" fill="none" viewBox="0 0 118 24">
  <g clip-path="url(#polygon-zkevm-light_svg__a)">
    <g clip-path="url(#polygon-zkevm-light_svg__b)">
      <path fill="#22143D" d="M34.316 22.453V7.327h2.266l.198 1.227h.12c.634-.831 1.745-1.424 3.257-1.424 2.782 0 5.044 2.259 5.044 5.622 0 3.362-2.227 5.622-5.048 5.622-1.508 0-2.544-.633-3.1-1.345h-.118v5.384h-2.623v.04h.004Zm8.262-9.701c0-1.978-1.27-3.21-2.822-3.21s-2.821 1.227-2.821 3.21c0 1.982 1.27 3.208 2.821 3.208 1.552 0 2.822-1.226 2.822-3.208Zm3.932 0c0-3.288 2.385-5.622 5.52-5.622 3.178 0 5.52 2.378 5.52 5.622 0 3.287-2.386 5.622-5.52 5.622-3.179 0-5.52-2.374-5.52-5.622Zm8.416 0c0-1.939-1.27-3.21-2.9-3.21-1.588 0-2.902 1.267-2.902 3.21 0 1.942 1.31 3.208 2.901 3.208 1.592 0 2.901-1.266 2.901-3.208Zm4.528 5.424V3.169h2.623v15.007h-2.623ZM71.846 7.327h2.782l-4.726 13.187c-.476 1.306-1.111 1.939-2.822 1.939h-2.539v-2.418h2.143c.396 0 .595-.198.714-.514l.238-.712-4.448-11.486h2.781l2.822 7.525h.436l2.544-7.525h.075v.004Zm3.298 11.407h2.662c.12.712.834 1.662 2.504 1.662 1.587 0 2.623-.99 2.623-2.497v-1.503h-.119c-.595.633-1.666 1.186-3.02 1.186-2.781 0-4.963-2.136-4.963-5.226s2.142-5.226 4.964-5.226c1.428 0 2.504.593 3.178 1.384h.12l.198-1.187h2.266V17.9c0 2.892-1.945 4.791-5.242 4.791-3.703 0-5.092-2.413-5.171-3.956Zm7.745-6.378c0-1.701-1.19-2.892-2.742-2.892-1.508 0-2.702 1.186-2.702 2.892s1.19 2.892 2.702 2.892 2.742-1.19 2.742-2.892Zm4.449.396c0-3.288 2.385-5.622 5.52-5.622 3.178 0 5.519 2.378 5.519 5.622 0 3.287-2.385 5.622-5.52 5.622-3.178 0-5.52-2.374-5.52-5.622Zm8.42 0c0-1.939-1.31-3.21-2.9-3.21-1.588 0-2.902 1.267-2.902 3.21 0 1.942 1.31 3.208 2.901 3.208 1.587 0 2.901-1.266 2.901-3.208Zm4.448 5.424V7.327h2.266l.199 1.029h.119c.436-.475 1.507-1.226 3.138-1.226 2.505 0 4.29 1.78 4.29 4.554v6.531h-2.623V12.04c0-1.385-.992-2.418-2.345-2.418a2.403 2.403 0 0 0-2.425 2.418v6.175h-2.619v-.04Z"/>
      <path fill="url(#polygon-zkevm-light_svg__c)" d="m20.178 16.91 6.432-3.723c.357-.198.555-.554.555-.95V4.791c0-.395-.198-.751-.555-.95L20.178.12a1.114 1.114 0 0 0-1.111 0L12.63 3.842a1.065 1.065 0 0 0-.555.95v13.265l-4.528 2.616-4.527-2.616V12.87l4.527-2.615 2.98 1.701V8.47L8.104 7.086c-.159-.08-.357-.159-.556-.159a.911.911 0 0 0-.555.159L.555 10.813a1.065 1.065 0 0 0-.555.95v7.446c0 .395.198.751.555.95l6.433 3.722c.357.198.753.198 1.11 0l6.433-3.723c.357-.198.555-.554.555-.95V5.944l.08-.04 4.452-2.576 4.528 2.616v5.187l-4.528 2.61-2.98-1.7v3.485l2.424 1.385c.358.198.754.198 1.116 0Z"/>
    </g>
  </g>
  <defs>
    <clipPath id="polygon-zkevm-light_svg__a">
      <path fill="#fff" d="M0 0h118v24H0z"/>
    </clipPath>
    <clipPath id="polygon-zkevm-light_svg__b">
      <path fill="#fff" d="M0 0h110.214v24H0z"/>
    </clipPath>
    <linearGradient id="polygon-zkevm-light_svg__c" x1="-.045" x2="25.812" y1="19.94" y2="4.786" gradientUnits="userSpaceOnUse">
      <stop stop-color="#A726C1"/>
      <stop offset=".878" stop-color="#803BDF"/>
      <stop offset="1" stop-color="#7B3FE4"/>
    </linearGradient>
  </defs>
</svg>
